Marwaita/scalable/apps/com.github.davidmhewitt.torrential.svg

<svg xmlns="http://www.w3.org/2000/svg" width="32" height="32" version="1">
 <rect style="opacity:0.2" width="28" height="28" x="2" y="3" rx="1.4" ry="1.4"/>
 <rect style="fill:#5aa9f0" width="28" height="28" x="2" y="2" rx="1.4" ry="1.4"/>
 <path style="fill:#ffffff;opacity:0.2" d="M 3.4003906 2 C 2.6247906 2 2 2.6247906 2 3.4003906 L 2 4.4003906 C 2 3.6247906 2.6247906 3 3.4003906 3 L 28.599609 3 C 29.375209 3 30 3.6247906 30 4.4003906 L 30 3.4003906 C 30 2.6247906 29.375209 2 28.599609 2 L 3.4003906 2 z"/>
 <path style="opacity:0.2" d="M 9,18.99999 16,27 l 7,-8.00001 -4,8.6e-4 v -3.00086 c 0,1 -1,1 -1,1 0,0 -1,0 -1,-1 0,-1 -1,-1 -1,-1 0,0 -1,0 -1,1 0,1 -1,1 -1,1 0,0 -1,0 -1,-1.00085 v 3.00085 z"/>
 <path style="fill:#ffffff" d="m 9,17.999995 7,8.00001 7,-8.00001 -4,8.6e-4 v -3.00086 c 0,1 -1,1 -1,1 0,0 -1,0 -1,-1 0,-1 -1,-1 -1,-1 0,0 -1,0 -1,1 0,1 -1,1 -1,1 0,0 -1,0 -1,-1.00085 v 3.00085 z"/>
 <path style="opacity:0.2;fill:#ffffff" d="m 16,5.999995 c 0,0 -1,0 -1,1 0,1 -1,1 -1,1 0,0 -1,8.5e-4 -1,-1 v 14 h 6 v -14 c 0,1 -1,1 -1,1 0,0 -1,0 -1,-1 0,-1 -1,-1 -1,-1 z"/>
 <path style="opacity:0.5;fill:#ffffff" d="m 14,9.999995 c 0,0 -1,-8.5e-4 -1,1 v 6 h 6 v -6 c 0,-1 -1,-1 -1,-1 0,0 -1,0 -1,1 0,1 -1,1 -1,1 0,0 -1,0 -1,-1 0,-1 -1,-1 -1,-1 z"/>
</svg>

<?xml version="1.0" encoding="UTF-8" standalone="no"?>
<svg
   height="32"
   id="svg11300"
   style="display:inline;enable-background:new"
   version="1.0"
   viewBox="0 0 32 32"
   width="32"
   sodipodi:docname="com.github.davidmhewitt.torrential.svg"
   inkscape:version="1.1.1 (3bf5ae0d25, 2021-09-20)"
   xmlns:inkscape="http://www.inkscape.org/namespaces/inkscape"
   xmlns:sodipodi="http://sodipodi.sourceforge.net/DTD/sodipodi-0.dtd"
   xmlns:xlink="http://www.w3.org/1999/xlink"
   xmlns="http://www.w3.org/2000/svg"
   xmlns:svg="http://www.w3.org/2000/svg"
   xmlns:rdf="http://www.w3.org/1999/02/22-rdf-syntax-ns#"
   xmlns:cc="http://creativecommons.org/ns#"
   xmlns:dc="http://purl.org/dc/elements/1.1/">
  <sodipodi:namedview
     id="namedview43"
     pagecolor="#ffffff"
     bordercolor="#666666"
     borderopacity="1.0"
     inkscape:pageshadow="2"
     inkscape:pageopacity="0.0"
     inkscape:pagecheckerboard="0"
     showgrid="false"
     inkscape:zoom="18.826718"
     inkscape:cx="13.863277"
     inkscape:cy="13.146211"
     inkscape:window-width="1920"
     inkscape:window-height="996"
     inkscape:window-x="0"
     inkscape:window-y="0"
     inkscape:window-maximized="1"
     inkscape:current-layer="svg11300" />
  <metadata
     id="metadata155">
    <rdf:RDF>
      <cc:Work
         rdf:about="">
        <dc:format>image/svg+xml</dc:format>
        <dc:type
           rdf:resource="http://purl.org/dc/dcmitype/StillImage" />
        <dc:title>elementary Icon Template</dc:title>
      </cc:Work>
    </rdf:RDF>
  </metadata>
  <title
     id="title4162">elementary Icon Template</title>
  <defs
     id="defs3">
    <linearGradient
       id="linearGradient10457">
      <stop
         id="stop10453"
         offset="0"
         style="stop-color:#000000;stop-opacity:1;" />
      <stop
         id="stop10455"
         offset="1"
         style="stop-color:#000000;stop-opacity:0;" />
    </linearGradient>
    <linearGradient
       id="linearGradient4712">
      <stop
         id="stop4708"
         offset="0"
         style="stop-color:#000000;stop-opacity:1;" />
      <stop
         id="stop4710"
         offset="1"
         style="stop-color:#000000;stop-opacity:0;" />
    </linearGradient>
    <linearGradient
       id="linearGradient4187">
      <stop
         id="stop4189"
         offset="0"
         style="stop-color:#ffffff;stop-opacity:1" />
      <stop
         id="stop4191"
         offset="0.02099473"
         style="stop-color:#ffffff;stop-opacity:0.23529412" />
      <stop
         id="stop4193"
         offset="0.97696"
         style="stop-color:#ffffff;stop-opacity:0.15686275" />
      <stop
         id="stop4195"
         offset="1"
         style="stop-color:#ffffff;stop-opacity:0.39215687" />
    </linearGradient>
    <linearGradient
       id="linearGradient3702-501-757-6-946">
      <stop
         id="stop3228"
         offset="0"
         style="stop-color:#181818;stop-opacity:0" />
      <stop
         id="stop3230"
         offset="0.5"
         style="stop-color:#181818;stop-opacity:1" />
      <stop
         id="stop3232"
         offset="1"
         style="stop-color:#181818;stop-opacity:0" />
    </linearGradient>
    <linearGradient
       gradientTransform="matrix(0.67567568,0,0,0.67567568,-0.216219,-0.21621)"
       gradientUnits="userSpaceOnUse"
       xlink:href="#linearGradient4187"
       id="linearGradient3483"
       x1="38.546436"
       x2="38.546436"
       y1="6.3738203"
       y2="41.679485" />
    <radialGradient
       cx="6.7304144"
       cy="9.9571075"
       fx="6.2001843"
       fy="9.9571075"
       gradientTransform="matrix(0,6.8187553,-8.371253,0,99.95014,-58.782232)"
       gradientUnits="userSpaceOnUse"
       xlink:href="#linearGradient27416-1-2-0-1"
       id="radialGradient4388"
       r="12.671875" />
    <radialGradient
       cx="4.9929786"
       cy="43.5"
       fx="4.9929786"
       fy="43.5"
       gradientTransform="matrix(1.4764724,0,0,0.59999988,18.938622,3.40001)"
       gradientUnits="userSpaceOnUse"
       xlink:href="#linearGradient4712"
       id="radialGradient3493"
       r="2.5" />
    <radialGradient
       cx="4.9929786"
       cy="43.5"
       fx="4.9929786"
       fy="43.5"
       gradientTransform="matrix(1.4764724,0,0,0.59999988,-13.061378,-55.6)"
       gradientUnits="userSpaceOnUse"
       xlink:href="#linearGradient4712"
       id="radialGradient3495"
       r="2.5" />
    <linearGradient
       gradientTransform="matrix(0.73684208,0,0,0.42857134,-1.68421,10.85715)"
       gradientUnits="userSpaceOnUse"
       xlink:href="#linearGradient3702-501-757-6-946"
       id="linearGradient3497"
       x1="25.058096"
       x2="25.058096"
       y1="47.027729"
       y2="39.999443" />
    <linearGradient
       id="linearGradient27416-1-2-0-1">
      <stop
         id="stop27420-2-0-8-7"
         offset="0"
         style="stop-color:#8cd5ff;stop-opacity:1" />
      <stop
         id="stop10017"
         offset="0.55456889"
         style="stop-color:#3689e6;stop-opacity:1" />
      <stop
         id="stop27422-3-5-3-3"
         offset="1"
         style="stop-color:#3689e6;stop-opacity:1" />
    </linearGradient>
    <linearGradient
       gradientUnits="userSpaceOnUse"
       xlink:href="#linearGradient10457"
       id="linearGradient10459"
       x1="96"
       x2="96"
       y1="200"
       y2="191"
       gradientTransform="translate(-80,-178)" />
    <linearGradient
       gradientTransform="translate(-80,-179)"
       gradientUnits="userSpaceOnUse"
       xlink:href="#linearGradient10457"
       id="linearGradient10469"
       x1="96"
       x2="96"
       y1="200"
       y2="188" />
    <radialGradient
       cx="6.7304144"
       cy="9.9571075"
       fx="6.2001843"
       fy="9.9571075"
       gradientTransform="matrix(0,6.8187553,-8.371253,0,97.176025,-69.417516)"
       gradientUnits="userSpaceOnUse"
       xlink:href="#linearGradient27416-1-2-0-1"
       id="radialGradient4388-3"
       r="12.671875" />
    <filter
       inkscape:collect="always"
       style="color-interpolation-filters:sRGB"
       id="filter1988"
       x="-0.075"
       y="-0.075"
       width="1.15"
       height="1.15">
      <feGaussianBlur
         inkscape:collect="always"
         stdDeviation="0.875"
         id="feGaussianBlur1990" />
    </filter>
  </defs>
  <rect
     height="28"
     id="rect5505-3"
     rx="2.24"
     ry="2.24"
     style="color:#000000;display:inline;overflow:visible;visibility:visible;opacity:0.5;fill:#000000;fill-opacity:1;fill-rule:nonzero;stroke:none;stroke-width:1.03704;stroke-opacity:0.498039;marker:none;filter:url(#filter1988);enable-background:accumulate"
     width="28"
     x="2.0000005"
     y="2.0000005" />
  <rect
     height="28"
     id="rect5505"
     rx="2.24"
     ry="2.24"
     style="color:#000000;display:inline;overflow:visible;visibility:visible;fill:url(#radialGradient4388);fill-opacity:1;fill-rule:nonzero;stroke:none;stroke-width:1.03704;stroke-opacity:0.498039;marker:none;enable-background:accumulate"
     width="28"
     x="2"
     y="2" />
  <path
     d="m 16,6 c 0,0 -1,0 -1,1 0,1 -1,1 -1,1 0,0 -1,8.5e-4 -1,-1 v 4 6 1 H 9 l 7,8 7,-8 H 19 V 17 15 11 7 C 19,8 18,8 18,8 18,8 17,8 17,7 17,6 16,6 16,6 Z"
     id="path10461"
     style="color:#bebebe;display:inline;overflow:visible;visibility:visible;opacity:0.05;fill:none;fill-opacity:1;fill-rule:nonzero;stroke:none;stroke-width:2;stroke-linejoin:round;stroke-miterlimit:4;stroke-dasharray:none;stroke-opacity:1;marker:none;enable-background:accumulate" />
  <path
     d="M 9,18 16,26.00001 23,18 19,18.00086 V 15 c 0,1 -1,1 -1,1 0,0 -1,0 -1,-1 0,-1 -1,-1 -1,-1 0,0 -1,0 -1,1 0,1 -1,1 -1,1 0,0 -1,0 -1,-1.00085 V 18 Z"
     id="path26667"
     style="color:#bebebe;display:inline;overflow:visible;visibility:visible;fill:#ffffff;fill-opacity:1;fill-rule:nonzero;stroke:none;stroke-width:1;marker:none;enable-background:accumulate" />
  <path
     d="m 16,6 c 0,0 -1,0 -1,1 0,1 -1,1 -1,1 0,0 -1,8.5e-4 -1,-1 v 14 h 6 V 7 C 19,8 18,8 18,8 18,8 17,8 17,7 17,6 16,6 16,6 Z"
     id="path10362"
     style="color:#bebebe;display:inline;overflow:visible;visibility:visible;opacity:0.2;fill:#ffffff;fill-opacity:1;fill-rule:nonzero;stroke:none;stroke-width:1;marker:none;enable-background:accumulate" />
  <path
     d="m 14,10 c 0,0 -1,-8.5e-4 -1,1 v 6 h 6 v -6 c 0,-1 -1,-1 -1,-1 0,0 -1,0 -1,1 0,1 -1,1 -1,1 0,0 -1,0 -1,-1 0,-1 -1,-1 -1,-1 z"
     id="path10323"
     style="color:#bebebe;display:inline;overflow:visible;visibility:visible;opacity:0.5;fill:#ffffff;fill-opacity:1;fill-rule:nonzero;stroke:none;stroke-width:1;marker:none;enable-background:accumulate" />
</svg>
